currency-eth.svg

<svg  viewBox="0 0 24 24" fill="currentColor"><path  d="M6,5H18V7H6M7,11H17V13H7M5.5,17H18.5V19H5.5"/></svg>

<svg fill="currentColor" viewBox="0 0 24 24"><path d="M6 5h12v2H6m1 4h10v2H7m-1.5 4h13v2h-13"/></svg>
